cards-playing-club-multiple.svg

<svg fill="currentColor" viewBox="0 0 24 24"><path d="M3 4v18c0 1.1.9 2 2 2h12v-2H5V4zm16-4H9C7.9 0 7 .9 7 2v16c0 1.1.9 2 2 2h10c1.1 0 2-.9 2-2V2c0-1.1-.9-2-2-2m-3 13c-.6 0-1.1-.3-1.5-.7l1 2.7h-3l1-2.7c-.4.4-.9.7-1.5.7-1.1 0-2-.9-2-2s.9-2 2-2h.3c-.2-.3-.3-.6-.3-1 0-1.1.9-2 2-2s2 .9 2 2c0 .4-.1.7-.3 1h.3c1.1 0 2 .9 2 2s-.9 2-2 2"/></svg>

<svg  viewBox="0 0 24 24" fill="currentColor"><path  d="M3 4V22C3 23.1 3.9 24 5 24H17V22H5V4H3M19 0H9C7.9 0 7 .9 7 2V18C7 19.1 7.9 20 9 20H19C20.1 20 21 19.1 21 18V2C21 .9 20.1 0 19 0M16 13C15.4 13 14.9 12.7 14.5 12.3L15.5 15H12.5L13.5 12.3C13.1 12.7 12.6 13 12 13C10.9 13 10 12.1 10 11S10.9 9 12 9H12.3C12.1 8.7 12 8.4 12 8C12 6.9 12.9 6 14 6S16 6.9 16 8C16 8.4 15.9 8.7 15.7 9H16C17.1 9 18 9.9 18 11S17.1 13 16 13Z"/></svg>
